src/assets/img/video-logo.svg

<svg
  width="27"
  height="20"
  viewBox="0 0 27 20"
  fill="none"
  xmlns="http://www.w3.org/2000/svg">
  <path
  opacity="0.4"
  fill-rule="evenodd"
  clip-rule="evenodd"
  d="M22.2082 2.86766L18.4091 5.68182V2.50266C18.4091 1.11814 17.3104 0 15.955 0H2.4541C1.09644 0 0 1.12048 0 2.50266V17.4973C0 18.8819 1.09874 20 2.4541 20H15.955C17.3126 20 18.4091 18.8795 18.4091 17.4973V14.3182L22.2082 17.1323C22.48 17.3336 22.9801 17.5 23.32 17.5H25.7691C26.456 17.5 27 16.939 27 16.2469V3.75309C27 3.06064 26.4489 2.5 25.7691 2.5H23.32C22.9732 2.5 22.4823 2.66461 22.2082 2.86766ZM2.45455 17.5V2.5H15.9545V17.5H2.45455ZM4.90909 13.75C4.90909 13.0596 5.45956 12.5 6.13996 12.5H12.2691C12.9489 12.5 13.5 13.0548 13.5 13.75C13.5 14.4404 12.9495 15 12.2691 15H6.13996C5.46017 15 4.90909 14.4452 4.90909 13.75ZM23.5108 14.9998L18.424 11.238L18.4243 8.76179L23.5073 4.9966L24.5455 4.99818V14.9988L23.5108 14.9998Z" fill="white"/>
</svg>

<svg
  width="27"
  height="20"
  fill="none"
  xmlns="http://www.w3.org/2000/svg">
  <path
  opacity=".4"
  fill-rule="evenodd"
  clip-rule="evenodd"
  d="M22.208 2.868 18.41 5.682v-3.18C18.41 1.119 17.31 0 15.955 0h-13.5C1.095 0 0 1.12 0 2.503v14.994C0 18.882 1.099 20 2.454 20h13.501c1.358 0 2.454-1.12 2.454-2.503v-3.179l3.8 2.814a2.19 2.19 0 0 0 1.111.368h2.45c.686 0 1.23-.561 1.23-1.253V3.753c0-.692-.551-1.253-1.23-1.253h-2.45a2.16 2.16 0 0 0-1.112.368ZM2.455 17.5v-15h13.5v15h-13.5Zm2.454-3.75c0-.69.55-1.25 1.231-1.25h6.13c.679 0 1.23.555 1.23 1.25 0 .69-.55 1.25-1.23 1.25H6.14c-.68 0-1.23-.555-1.23-1.25ZM23.511 15l-5.087-3.762V8.762l5.083-3.765 1.038.001v10L23.512 15Z" fill="#fff"/>
</svg>
